theme-map4trip/src/main/assets/themes/mapsforgeV3/map4trip/symbols/atm.svg

<svg height="20" width="20" xmlns="http://www.w3.org/2000/svg"><path d="m4.9278227 4.4824438-2.0820402 13.1743292h14.0695445l-2.050494-13.2121865z" fill-rule="evenodd" stroke="#000" stroke-width=".109474"/><path d="m2.841054 1.438447h14.015866v3.030458h-14.015866z" stroke-linecap="round" stroke-width="2.491"/><path d="m9.4571335 15.333227c-.7456 0-2.83328-.29824-2.68416-1.64032s1.64032-.59648 2.68416-.44736v-1.93856c-1.19296-.29824-2.68416-1.19296-2.68416-2.8332799 0-1.64032 1.4912-2.68416 2.68416-2.68416 0-.89472 0-1.19296.44736-1.19296.4473605 0 .4473605.29824.4473605 1.19296.894719 0 2.982399.29824 2.535039 1.34208s-1.789439.59648-2.535039.44736v1.93856c1.342079.29824 2.833279 1.1929599 2.833279 2.8332799s-1.34208 2.9824-2.833279 2.9824c0 .89472 0 1.19296-.4473605 1.19296-.44736 0-.44736-.29824-.44736-1.19296zm0-6.1139199v-1.64032c-1.04384.14912-1.04384 1.4912 0 1.64032zm.8947205 2.3859199v1.64032c1.043839-.14912 1.043839-1.4912 0-1.64032z" fill="#fff"/></svg>

<?xml version="1.0" encoding="UTF-8" standalone="no"?>
<!-- Created with Inkscape (http://www.inkscape.org/) -->
<svg
   xmlns:svg="http://www.w3.org/2000/svg"
   xmlns="http://www.w3.org/2000/svg"
   version="1.0"
   width="20"
   height="20"
   id="symbol-atm">
  <defs
     id="defs2387" />
  <g
     id="layer1">
    <path
       d="M 4.9278227,4.4824438 L 2.8457825,17.656773 L 16.915327,17.656773 L 14.864833,4.4445865 L 4.9278227,4.4824438 z"
       id="path2425"
       style="fill:#000000;fill-opacity:1;fill-rule:evenodd;stroke:#000000;stroke-width:0.10947382;stroke-linecap:butt;stroke-linejoin:miter;stroke-miterlimit:4;stroke-dasharray:none;stroke-opacity:1" />
    <rect
       width="14.015866"
       height="3.0304577"
       x="2.841054"
       y="1.4384469"
       id="rect2397"
       style="stroke-width:2.49099994;stroke-linecap:round;stroke-miterlimit:4;stroke-dasharray:none" />
    <path
       d="M 9.4571335,15.333227 C 8.7115335,15.333227 6.6238535,15.034987 6.7729735,13.692907 C 6.9220935,12.350827 8.4132935,13.096427 9.4571335,13.245547 L 9.4571335,11.306987 C 8.2641735,11.008747 6.7729735,10.114027 6.7729735,8.4737071 C 6.7729735,6.8333871 8.2641735,5.7895471 9.4571335,5.7895471 C 9.4571335,4.8948271 9.4571335,4.5965871 9.9044935,4.5965871 C 10.351854,4.5965871 10.351854,4.8948271 10.351854,5.7895471 C 11.246573,5.7895471 13.334253,6.0877871 12.886893,7.1316271 C 12.439533,8.1754671 11.097454,7.7281071 10.351854,7.5789871 L 10.351854,9.5175471 C 11.693933,9.8157871 13.185133,10.710507 13.185133,12.350827 C 13.185133,13.991147 11.843053,15.333227 10.351854,15.333227 C 10.351854,16.227947 10.351854,16.526187 9.9044935,16.526187 C 9.4571335,16.526187 9.4571335,16.227947 9.4571335,15.333227 z M 9.4571335,9.2193071 L 9.4571335,7.5789871 C 8.4132935,7.7281071 8.4132935,9.0701871 9.4571335,9.2193071 z M 10.351854,11.605227 L 10.351854,13.245547 C 11.395693,13.096427 11.395693,11.754347 10.351854,11.605227 z"
       id="path5"
       style="fill:#ffffff;stroke:none" />
  </g>
</svg>
